packages/icons/src/svg/28/statistics_outline_28.svg

<?xml version="1.0" encoding="UTF-8"?>
<svg width="28px" height="28px" viewBox="0 0 28 28" version="1.1" xmlns="http://www.w3.org/2000/svg" xmlns:xlink="http://www.w3.org/1999/xlink">
    <!-- Generator: Sketch 63.1 (92452) - https://sketch.com -->
    <title>statistics_outline_28</title>
    <desc>Created with Sketch.</desc>
    <g id="Page-1" stroke="none" stroke-width="1" fill="none" fill-rule="evenodd">
        <g id="statistics_outline_28">
            <rect x="0" y="0" width="28" height="28"></rect>
            <path d="M23,21 C23.5522847,21 24,21.4477153 24,22 C24,22.5522847 23.5522847,23 23,23 L5,23 C4.44771525,23 4,22.5522847 4,22 C4,21.4477153 4.44771525,21 5,21 L23,21 Z M22,6 C22.5522847,6 23,6.44771525 23,7 L23,7 L23,12 C23,12.5522847 22.5522847,13 22,13 C21.4477153,13 21,12.5522847 21,12 L21,12 L21,9.414 L14.7071068,15.7071068 C14.3466228,16.0675907 13.7793918,16.0953203 13.3871006,15.7902954 L13.2928932,15.7071068 L11,13.4142136 L6.70710678,17.7071068 C6.31658249,18.0976311 5.68341751,18.0976311 5.29289322,17.7071068 C4.90236893,17.3165825 4.90236893,16.6834175 5.29289322,16.2928932 L5.29289322,16.2928932 L10.2928932,11.2928932 C10.6834175,10.9023689 11.3165825,10.9023689 11.7071068,11.2928932 L11.7071068,11.2928932 L14,13.5857864 L19.584,8 L17,8 C16.4871642,8 16.0644928,7.61395981 16.0067277,7.11662113 L16,7 C16,6.44771525 16.4477153,6 17,6 L17,6 Z" id="↳-Icon-Color" fill="currentColor" fill-rule="nonzero"></path>
        </g>
    </g>
</svg>

<svg xmlns="http://www.w3.org/2000/svg" width="28" height="28" fill="currentColor" viewBox="0 0 28 28"><path d="M23 21a1 1 0 1 1 0 2H5a1 1 0 1 1 0-2h18ZM22 6a1 1 0 0 1 1 1v5a1 1 0 1 1-2 0V9.414l-6.293 6.293a1 1 0 0 1-1.32.083l-.094-.083L11 13.414l-4.293 4.293a1 1 0 0 1-1.414-1.414l5-5a1 1 0 0 1 1.414 0L14 13.586 19.584 8H17a1 1 0 0 1-.993-.883L16 7a1 1 0 0 1 1-1h5Z"/></svg>
